static/images/icon-view.svg

<svg viewBox="0 0 18 18" xmlns="http://www.w3.org/2000/svg"><path clip-rule="evenodd" d="m0 9s3.70642-6 9-6c5.3472 0 9 6 9 6s-2.6473 6-9 6c-6.3001 0-9-6-9-6zm5.2946 0c0 2.1271 1.64077 3.8176 3.7054 3.8176 2.0646 0 3.7054-1.6905 3.7054-3.8176 0-2.12715-1.6408-3.81761-3.7054-3.81761-2.06463 0-3.7054 1.69046-3.7054 3.81761z" fill-rule="evenodd"/><path d="m11 9c0 1.105-.895 2-2 2-1.10499 0-2-.895-2-2 0-1.10499.89501-2 2-2 1.105 0 2 .89501 2 2z"/></svg>

<svg viewBox="0 0 18 18"  xmlns="http://www.w3.org/2000/svg">
<path fill-rule="evenodd" clip-rule="evenodd" d="M0 9C0 9 3.70642 3 9 3C14.3472 3 18 9 18 9C18 9 15.3527 15 9 15C2.6999 15 0 9 0 9ZM5.2946 9C5.2946 11.1271 6.93537 12.8176 9 12.8176C11.0646 12.8176 12.7054 11.1271 12.7054 9C12.7054 6.87285 11.0646 5.18239 9 5.18239C6.93537 5.18239 5.2946 6.87285 5.2946 9Z" />
<path d="M11 9C11 10.105 10.105 11 9 11C7.89501 11 7 10.105 7 9C7 7.89501 7.89501 7 9 7C10.105 7 11 7.89501 11 9Z" />
</svg>
